!!!OTL: ALS D JUDEN DEN HERRN
!!!ARE: Europa, Mitteleuropa, Deutschland, Bayern
!!!SCT: E1759
!!!YEM: Copyright 1995, estate of Helmut Schaffrath.
**kern
*ICvox
*Ivox
*M6/8
*k[f#]
*G:
{8d
=1
8g
8g
8g
8b
8a
8g
=2
4f#
8a
4d}
{8d
=3
8g
8g
8g
8b
8a
8g
=4
4.a
4r}
{8d
=5
8cc
8cc
8cc
8ee
8dd
8cc
=6
8b
8b
8dd
4g}
{8b
=7
8a
8a
8a
8d
8e
8f#
=8
4.g
4r}
==
!!!AGN: Scherz - Lied, biblischer Stoff
!!!ONB: ESAC (Essen Associative Code) Database: ERK3
!!!AMT: compound duple
!!!AIN: vox
!!!EED: Helmut Schaffrath
!!!EEV: 1.0
*-
